X:98
T:Brown’s Hornpipe,aka. RHu.098
T:Quick’s Hp,aka. RHu.098
T:Malthouse Hp,aka. RHu.098
S:R.Hughes MS,1823,Whitchurch,Shrops.
N:Known as ‘Brown’s’ in the Joshua Gibbons MS(1823-6, Tealby, Lincs)
N:and ‘The Malthouse’ in Charles Clarke MS (Feltwell, Norfolk).
N:Unfortunately just named ‘Hornpipe’ here!, but a nice version.
A:Whitchurch , Shropshire
Z:Neil Brookes 2006
M:4/4
L:1/8
Q:1/4=160
K:D
fg|afge defd|edcB AGFE|FAdF Bfed|c2A2A2 fg|!
afge defd|edcB AGFE|FAdF Bgec|d2d2d2::!
cd|eAA2 eAgA|fAA2 fBaf|efge dB^cA|B2B2B2AG |!
FAd=c BGed|^cAfe dBgf|ecag fdec|d2d2d2:|

